!!!!SEGMENT: pl-wtm--iii-41-637-1--001-002_joteyko-tadeusz--sonatine-c-dur-op-18-no-1-ii-chanson-polonaise.krn
!!!cenid: 19xx:104
!!!COM: Joteyko, Tadeusz
!!!COM-rismID: pe50046072
!!!CDT: 1872-1932
!!!CNT: Polish
!!!OPR: Sonatine C-dur Op. 18 No. 1
!!!OTL: II. Chanson polonaise
!!!OMV: 002
!!!PDT:
!!!AGN: Secular; Sonata
!!!YEC: Copyright 2022 Narodowy Instytut Fryderyka Chopina (https://polishscores.org)
!!!YEM: License CC-BY-4.0 (https://creativecommons.org/licenses/by/4.0)
!!!SMS-siglum: PL-Wtm
!!!SMS-shelfmark: III.41.637-1
!!!SMS-variant:
!!!SMS-altvar:
!!!SMS-shelfwork: 001-002 M
!!!NIFC-rismSourceID: 1001141217
!!!NIFC-rismChildID: 1001141217
!!!NIFC-islandoraID: pl-wtm:20249
!!!URL-pdf-islandora: https://repozytorium.nifc.pl/islandora/object/pl-wtm%3A20249/datastream/PDF/view
!!!URL-scan: https://polish.musicsources.pl/pl/lokalizacje/galeria/druki-muzyczne/17521/4 @EN{Scan on Polish Music Sources Website} @PL{Skany w portalu Dziedzictwo Muzyki Polskiej w otwartym dostępie}
!!!IIIF:
!!!ONB-nifc: UWAGA: części Sonatiny: I. Allegro assai, II. Chanson polonaise, III. Rondo alla Cracoviana
!!!AIN: 1 forte
!!!key: d
**kern	**fing	**kern	**fing	**dynam
*part1	*	*part1	*	*part1
*staff2	*	*staff1	*	*
*I"Piano	*	*I"Piano	*	*
*I'P-no	*	*I'P-no	*	*
*ICklav	*	*ICklav	*	*
*Iforte	*	*Iforte	*	*
*clefF4	*	*clefG2	*	*
*k[b-]	*	*k[b-]	*	*
*d:	*	*d:	*	*
*M3/4	*	*M3/4	*	*
=1	=1	=1	=1	=1
*	*below	*	*	*
!	!	!LO:TX:a:t=Allegro moderato.	!	!
(<2D\	1	8r	.	.
.	.	8d/ 8f 8b-	5	.
.	.	(>4d^/ 4f 4b-	.	.
4AA/)	3	4d/) 4f 4a	4	.
=2	=2	=2	=2	=2
(2C#X/	2	8r	.	.
.	.	8d/ 8b-	.	.
.	.	(>4d^/ 4b-	.	.
4AA/)	4	4c#X/) 4a	.	.
=3	=3	=3	=3	=3
*	*	*^	*	*
(4GG/	5	(8a^/L	4B-\	5	.
.	.	8g/J	.	4	.
4AA/	45	4d/ 4f	2ryy	1 3	.
4A\	1	4c#X/ 4e	.	2 4	.
*	*	*v	*v	*	*
=4	=4	=4	=4	=4
4D\	4	2d/)	3	.
4F\	2	.	.	.
4A\)	1	4r	.	.
=5	=5	=5	=5	=5
*	*	*^	*	*
!	!	!LO:TX:a:i:t=Cantabile.	!	!	!
(4D\	2	(8a/L	4f\	.	pp
.	.	8b-/J	.	.	.
4C#X/	.	4.b-^/	2e\	5	.
4AA/	5	.	.	.	.
.	.	8a/	.	4	.
*	*	*v	*v	*	*
=6	=6	=6	=6	=6
4D\	3	2d/ 2g	1 3	.
4A\	1	.	.	.
8G#X\L	2	4d/) 4f	1 2	.
8A\J)	1	.	.	.
!!LO:LB:g=original
=7	=7	=7	=7	=7
*	*	*^	*	*
(4B-\	2	(8e/L	4d\	1 3	.
.	.	8g/J	.	.	.
4A\	1	4.d^/ 4.f	2ryy	1 4	.
4AA/	5	.	.	.	.
.	.	8c#X/) 8e	.	2 3	.
*	*	*v	*v	*	*
=8	=8	=8	=8	=8
4D\	3	(2c#X/ 2e	2 4	.
4A\	.	.	.	.
4F\)	.	4d/)	.	.
=9	=9	=9	=9	=9
(4BB-/	5	(8d/L	.	<
.	.	8dd/J	5	.
4F\	.	4.cc^\	4	.
4D\	3	.	.	[
.	.	8b-\)	3	.
=10	=10	=10	=10	=10
4C/	4	(2b-\	4	>
8D\L	.	.	.	.
8E\J	.	.	.	.
4F\)	.	4a/)	3	]
=11	=11	=11	=11	=11
*	*	*^	*	*
(4BB-/	4	(8g/L	4d\	3	.
.	.	8b-/J	.	5	.
4BBn/	3	4a/	4d\	1 4	.
4C/	2	4g/	4e\	1 3	.
*	*	*v	*v	*	*
=12	=12	=12	=12	=12
8F\L	1	2f/) 2a	2 4	.
8C\	5	.	.	.
8F\	3	.	.	.
8G\J	2	.	.	.
4A\)	1	4r	.	.
!!LO:LB:g=original
=13	=13	=13	=13	=13
*^	*	*	*	*
4r	2.C#X\	.	(8a\L	1	<
.	.	.	8ff\J	5	.
(4G/	.	.	4.ee^\	4	.
4A/)	.	.	.	.	[
.	.	.	8cc#X\)	2	.
=14	=14	=14	=14	=14	=14
4r	2.D\	.	(8f\L	1	.
.	.	.	8ee\J	.	.
(4F/	.	.	4.dd^\	.	.
4G/)	.	.	.	.	.
.	.	.	8a/)	.	.
=15	=15	=15	=15	=15	=15
4r	2.E\	.	(8e\L	.	.
.	.	.	8dd\J	.	.
(4A/	.	.	4cc#X\	3	.
4G#X/ 4d	.	.	4bn\	2	.
*v	*v	*	*	*	*
=16	=16	=16	=16	=16
2A\) 2c#X	.	4a/	1	.
.	.	4aa\)	5	.
4r	.	4aa\	4	.
=17||	=17||	=17||	=17||	=17||
*k[bnf#c#]	*	*k[bnf#c#]	*	*
!	!	!LO:TX:B:a:t=Piu mosso.	!	!
(4D\	5	8.ff#\L 8.aa	2 3	f
.	.	16bb\Jk	.	.
4F#\	.	4ff#\ 4aa	.	.
4A\	.	4ff#\ 4aa	.	.
=18	=18	=18	=18	=18
4G\	4	4gg\ 4bb	1 4	.
4B^\	.	4.gg^\ 4.ddd	.	.
4d\	.	.	.	.
.	.	8gg\ 8bb	.	.
!!LO:LB:g=original
=19	=19	=19	=19	=19
4c#\	2	(8.aa\L	5	.
.	.	16gg\Jk	.	.
4A\	.	4ee\	.	.
4c#\	.	4gg\	5	.
=20	=20	=20	=20	=20
4d\)	.	8.ff#\L	4	.
.	.	16dd\Jk	2	.
(4D\	5	2a^/)	1	.
4F#\	.	.	.	.
=21	=21	=21	=21	=21
*	*	*^	*	*
4A\	.	(8b^/L	4g\	1 2	.
.	.	8cc#/	.	.	.
4E\	2	8b^/	4g\	.	.
.	.	8cc#/	.	.	.
4AA/)	5	8b^/	4g\	.	.
.	.	8ee/J	.	5	.
*	*	*v	*v	*	*
=22	=22	=22	=22	=22
*^	*	*	*	*
4r	2.D\	5	8.dd\L	4	.
.	.	.	16a\Jk	1	.
(4A/	.	.	2f#^/)	2	.
4F#/	.	3	.	.	.
=23	=23	=23	=23	=23	=23
*	*	*above	*	*	*
4G/	[2.D\	2	(8e/L	1	.
.	.	.	8f#/	2	.
4B/	.	1	8g/	3	.
.	.	.	8a/	1	.
4G/	.	.	8b/	.	.
.	.	.	8cc#/J	.	.
=24	=24	=24	=24	=24	=24
4F#/	2.D\]	.	8.dd\L	1	.
.	.	.	16ee\Jk	.	.
4A/	.	.	4ff#^\	3	.
4F#/)	.	.	4dd\)	.	.
*v	*v	*	*	*	*
!!LO:LB:g=original
=25	=25	=25	=25	=25
*	*below	*	*	*
(4D\	5	(8.ff#\L 8.aa	.	<
.	.	16bb\Jk	.	.
4d\	.	4ff#\ 4aa	.	.
4cn\	.	4ee\ 4aa	.	[
=26	=26	=26	=26	=26
4B^\)	3	4.dd#X^\ 4.bb	1 5	f
(4BB/	5	.	.	.
.	.	8aa\	4	.
4D#X\	3	8gg\L	.	.
.	.	8ff#\J)	.	.
=27	=27	=27	=27	=27
4E\	1	(8.ee\L	1	.
.	.	16ff#\Jk	3	.
4G\	3	4ee\	2	.
4G#X\	2	4ddn\ 4ee	1 3	.
=28	=28	=28	=28	=28
4A^\	1	4.cc#^\ 4.aa	2 5	.
4AA/)	5	.	.	.
.	.	8gg\L	4	.
4r	.	8ff#\	.	.
.	.	8ee\J)	.	.
=29	=29	=29	=29	=29
(4D\	4	(8.dd\L	5	.
.	.	16b\Jk	3	.
8E\L	3	4f#/) 4a#X	1 2	.
8F#\	2	.	.	.
8E\	1	4f#/ 4a#	.	.
8C#\J	3	.	.	.
!!LO:LB:g=original
=30	=30	=30	=30	=30
4D\)	2	(8.g\L 8.b	1 3	.
.	.	16ee\Jk	.	.
(8E\L	3	4f#/) 4a#X	1 2	.
8F#\	2	.	.	.
8E\	1	4f#/ 4a#	.	.
8C#\J	3	.	.	.
=31	=31	=31	=31	=31
*	*	*^	*	*
4D\)	2	(8b/L	4f#\	1 2	.
.	.	8cc#/	.	3	.
(4B\	1	8dd/	4r	4	.
.	.	8ff#/	.	5	.
4E\	5	8ee/	4g#X\	1 4	.
.	.	8b/J	.	2	.
*	*	*v	*v	*	*
=32	=32	=32	=32	=32
4A\	3	8.cc#\L	3	>
.	.	16b\Jk	.	.
4c#\	2	4a/)	.	.
4e\)	1	4r	.	]]
=33	=33	=33	=33	=33
[4d\	2	8.ff#\L 8.aa	2 3	mf
.	.	16bb\Jk	.	.
8d\L]	.	4ff#\ 4aa	.	.
(8e\	1	.	.	.
8d\	2	4ff#\ 4aa	.	.
8c#\J	3	.	.	.
=34	=34	=34	=34	=34
8B\L	1	4gg\ 4bb	1 3	.
8A\	.	.	.	.
8G\	.	4.bb^\ 4.ddd	.	.
8F#\	4	.	.	.
8E\	1	.	.	.
8D\J	2	8gg\ 8bb	.	.
!!LO:PB:g=original
=35	=35	=35	=35	=35
[4C#/)	3	(8.ee\L 8.aa	5	.
.	.	16gg\Jk	.	.
8C#/L]	.	4ee\	.	.
(8AA/	5	.	.	.
8BB/	.	4gg\	5	.
8C#/J	.	.	.	.
=36	=36	=36	=36	=36
8D\L	2	8.ff#\L	4	.
8E\	1	.	.	.
.	.	16dd\Jk	2	.
8F#\	3	2a^/)	1	.
8G\	2	.	.	.
8F#\	3	.	.	.
8E\J	1	.	.	.
=37	=37	=37	=37	=37
*	*	*^	*	*
4D\)	2	(8b^/L	4g\	1 2	.
.	.	8cc#/	.	.	.
(4C#/	3	8b^/	4g\	.	.
.	.	8cc#/	.	.	.
4AA/	5	8b^/	4g\	.	.
.	.	8ee/J	.	.	.
*	*	*v	*v	*	*
=38	=38	=38	=38	=38
4D\)	2	8.dd\L	4	.
.	.	16a\Jk	2	.
(8A\L	2	2f#^/)	1	.
8B\	.	.	.	.
8A\	.	.	.	.
8A-X\J	3	.	.	.
=39	=39	=39	=39	=39
4G\)	4	(>8e/L	3	>
.	.	8f#/	.	.
(4B-X\	2	8e/	.	.
.	.	8f#/	.	.
4A\	1	8c#/ 8e	1 3	.
.	.	8g/J	5	.
!!LO:LB:g=original
=40	=40	=40	=40	=40
4D\)	5	(8.f#/L	4	.
.	.	16e/Jk	.	.
(8F#\L	2	2d^/))	.	.
8G\	.	.	.	.
8F#\	.	.	.	.
8E\J	.	.	.	.
=41	=41	=41	=41	=41
!	!	!	!	!LO:DY:rj
4D\)	4	(8.f#/L	.	p
.	.	16e/Jk	.	.
(8B-X\L	2	2d^/)	.	.
8cn\	.	.	.	.
8B-\	.	.	.	.
8A\J	.	.	.	.
=42	=42	=42	=42	=42
[4G#X\)	4	(8.fn/L	.	.
.	.	16e/Jk	.	.
8G#\L]	.	2d^/)	.	.
(8A\	3	.	.	.
!LO:TX:a:t=rit.	!	!	!	!
8B-X\	2	.	.	.
8A\J	1	.	.	.
=43	=43	=43	=43	=43
*	*	*^	*	*
2Gn\	2	8.e^/L	2c#\	.	<
.	.	16a/Jk	.	.	.
.	.	4a/	.	.	.
4Fn\	3	4a/	4d\	.	[
=44	=44	=44	=44	=44	=44
4E\)	4	(8a/L	4c#\	4	.
.	.	8b-X/	.	.	<
4r	.	8a/	4r	.	.
.	.	8g/	.	.	.
4r	.	8fn/	4r	.	.
.	.	8g/J)	.	.	[
*	*	*v	*v	*	*
!!LO:LB:g=original
=45||	=45||	=45||	=45||	=45||
*k[b-]	*	*k[b-]	*	*
*	*	*^	*	*
!	!	!LO:TX:a:t=Tempo I.	!	!	!
4D\ 4F	3 1	(8a/L	4d\	.	pp
.	.	8b-/J	.	.	.
!	!	!LO:TX:b:t=dolce	!	!	!
4E\	.	4.b-^/	2c#X\	5	.
4E-X\	.	.	.	.	.
.	.	8a/	.	4	.
*	*	*v	*v	*	*
=46	=46	=46	=46	=46
*^	*	*	*	*
8r	2.D\	5	2d/ 2g	1 3	.
8B-/	.	.	.	.	.
4B-/	.	.	.	.	.
4A/	.	.	4d/) 4f	1 2	.
*v	*v	*	*	*	*
=47	=47	=47	=47	=47
4G\	3	(>8d/L 8e	.	.
.	.	8g/J	.	.
4A\	1	4.d^/ 4.f	.	.
8G#X\L	.	.	.	.
8Gn\J	.	8c#X/) 8e	.	.
=48	=48	=48	=48	=48
*^	*	*	*	*
8D/L	2.D\	.	(2c#X/ 2e	.	.
8A/J	.	.	.	.	.
4G/	.	.	.	.	.
4F/	.	.	4d/)	.	.
*v	*v	*	*	*	*
=49	=49	=49	=49	=49
(4BB-/	4	(>8d/L	.	<
.	.	8dd/J	.	.
4C/	3	4e/ 4cc	1 4	.
4D\	2	4f/) 4b-	1 3	[[
=50	=50	=50	=50	=50
*	*	*^	*	*
4E\	1	2b-/	8g\L	3 5	.
.	.	.	8f\	2	.
4G\	4	.	8e\	1	.
.	.	.	8d\J	2	.
4A\	3	4a/	4c#X\	1 5	.
!!LO:LB:g=original
=51	=51	=51	=51	=51	=51
4B-\	2	(8g/L	4d\	3	.
.	.	8b-/J	.	5	.
4Bn\	1	4a/	8d\L	4	.
.	.	.	8f\	.	.
4c\	2	4g/	8f\	2 3	.
.	.	.	8e\J	.	.
*	*	*v	*v	*	*
=52	=52	=52	=52	=52
8F\L	5	2f/) 2a	2 4	>
8d\J	.	.	.	.
8c\L	.	.	.	.
8B-X\J	.	.	.	.
4A\)	4	4r	.	]]
=53	=53	=53	=53	=53
*	*	*^	*	*
(4G\	5	(8a/L	4a\	.	mf
.	.	8ff/J)	.	.	.
2c#X^\)	2	2ee^/	8b-\L	3 5	.
.	.	.	8a\J	.	.
.	.	.	4g\	.	.
=54	=54	=54	=54	=54	=54
(4F\	5	(8a/L	4a\	.	.
.	.	8ee/J)	.	.	.
2B-^\)	2	2dd^/	8a\L	3 5	.
.	.	.	8g\J	.	.
.	.	.	4f\	.	.
=55	=55	=55	=55	=55	=55
(4E\	4	(8g/L	4g\	.	.
.	.	8dd/J)	.	.	.
2A^\)	1	2ccn^/	8g\L	.	.
.	.	.	8f\J	.	.
.	.	.	4e\	.	.
=56	=56	=56	=56	=56	=56
(4D\	5	(8f/L	4f\	.	.
.	.	8cc/J)	.	.	.
2G^\)	2	2b-^/	8f\L	.	.
.	.	.	8e\J	.	.
.	.	.	4d\	.	.
!!LO:LB:g=original
=57	=57	=57	=57	=57	=57
(4C/	4	(8e/L	4e\	.	>
.	.	8b-/J)	.	.	.
4F\	1	(4a^/	8e\L	1 5	.
.	.	.	8d\J	2	.
4E\)	2	4g/)	4c#X\	1 4	.
=58	=58	=58	=58	=58	=58
(4BB-/	4	(8d/L	4d\	.	.
.	.	8a/J)	.	.	.
4E\	.	(4g^/	8d\L	1 5	.
.	.	.	8c#X\J	2	.
4D\)	.	4f/)	4d\	1 4	.
=59	=59	=59	=59	=59	=59
(<4GG/	4	(8B-/L	4B-\	.	.
.	.	8f/J)	.	.	.
4GG#X/	.	(2e^/	4Bn\	1 5	>
4AA/	2	.	4c#X\	4	.
*	*	*v	*v	*	*
=60	=60	=60	=60	=60
4D\	1	2F/) 2d	1 5	.
8AA/L	2	.	.	.
8FF/J	4	.	.	]
4DD/)	5	4r	.	.
=61	=61	=61	=61	=61
*	*	*^	*	*
(2c\	1	(8dd/L	2f#X\	.	pp
.	.	8ee-X/J	.	.	.
.	.	4.ee-^/	.	.	.
4B-\	2	.	4g\	.	.
.	.	8dd/	.	4	.
=62	=62	=62	=62	=62	=62
2A\	1	2cc/	4g\	1 35	.
.	.	.	4f#X\	.	.
4G\)	2	4b-/)	4g\	1 4	.
!!LO:LB:g=original
=63	=63	=63	=63	=63	=63
(4E\	4	(8c#X/L	4c#\	.	.
.	.	8b-/J)	.	.	.
8F\L	.	(4.b-^/	8d\L	1 5	.
8G\J	.	.	8e\	.	.
4A\	.	.	8d\	.	.
.	.	8a/	8c#\J	2 5	.
*	*	*v	*v	*	*
=64	=64	=64	=64	=64
4D\) 4F	2 4	4d/)	.	.
4r	.	4r	.	.
(4G\	.	(>4e/ 4b- 4cc#X	.	.
=65	=65	=65	=65	=65
4F\)	.	4d/) 4a 4dd	.	.
4r	.	4r	.	.
(4E\	.	(>4B-/ 4d 4g#X	.	.
=66	=66	=66	=66	=66
4A\)	.	4c#X/) 4a	.	.
4r	.	4r	.	.
((4AA\ 4Gn	1 5	(4c#/	.	.
=67	=67	=67	=67	=67
4D\)) 4F	2 3	4d/)	.	.
4r	.	4r	.	.
!	!	!	!	!LO:DY:rj
4D\ 4A	.	4f\ 4dd	.	ppp
=68	=68	=68	=68	=68
2.D;\ 2.A	.	2.f;\ 2.dd	.	.
==	==	==	==	==
*-	*-	*-	*-	*-
!!!system-decoration: {(s1,s2)}
!!!RDF**kern: > = above
!!!RDF**kern: < = below
!!!RDF**dynam: > = dim.
!!!ENC: Berenika Jozajtis
!!!END: 2023-10-07
!!!ENC: Leszek Kubiak
!!!END: 2023-10-24
